X: 197
T:Domine, ne projicias me / Sed tibi soli
N: Derived from Jos1609-Domine_ne_projicias_me.krn
C: Josquin des Prez
%%abc-version 2.0
%%abcx-abcm2ps-target-version 5.9.1 (29 Sep 2008)
%%abc-creator hum2abc beta
%%abcx-conversion-date 2019/02/12 16:15:47
%%abc-edited-by Jesse Rodin
%%abc-edited-by Jesse Rodin; Victoria Chang 2011/05/22
%%abcx-initial-encoding-date 2011/05/22/
%%humdrum-veritas 251171415
%%humdrum-veritas-data 3071626672
%%linebreak <none>
%%barnumbers 0
L: 1/4
M: 2/1
Q: 1/2=120
%%staves [1 2 3 4]
V: 1 clef=treble
V: 2 clef=treble-8
V: 3 clef=treble-8
V: 4 clef=bass
K: C
[V:1] z8 | 
[V:2] z8 | 
[V:3] E8 | 
[V:4] z8 | 
[V:1] E8 | 
[V:2] z8 | 
[V:3] E4E4 | 
[V:4] z8 | 
[V:1] E4E4 | 
[V:2] z8 | 
[V:3] A6A2 | 
[V:4] A,,8 | 
[V:1] A6A2 | 
[V:2] A8 | 
[V:3] A4A4 | 
[V:4] A,,4A,,4 | 
[V:1] A4A4 | 
[V:2] A4A4 | 
[V:3] F4D4 | 
[V:4] D,6D,2 | 
[V:1] F4D4 | 
[V:2] d6d2 | 
[V:3] F2G2A4 | 
[V:4] D,4D,4 | 
[V:1] F2G2A4 | 
[V:2] d4d4 | 
[V:3] D2G4^F2 | 
[V:4] B,,2G,,2D,4 | 
[V:1] d6B2- | 
[V:2] B4G4 | 
[V:3] G4z2d2 | 
[V:4] G,,4z2G,2- | 
[V:1] B2AGA4 | 
[V:2] z2G2c2d2 | 
[V:3] B2c2A3B | 
[V:4] G,2E,2F,4 | 
[V:1] G3AB2c2- | 
[V:2] e8 | 
[V:3] c2B2G4 | 
[V:4] E,6C,2 | 
[V:1] cBA4^G2 | 
[V:2] c2d2e4 | 
[V:3] A4B4 | 
[V:4] F,4E,4 | 
[V:1] A4z4 | 
[V:2] c2d4^c2 | 
[V:3] A2A4G2 | 
[V:4] F,2D,2E,4 | 
[V:1] D4D4 | 
[V:2] d4z4 | 
[V:3] A4z4 | 
[V:4] D,8 | 
[V:1] A6A2 | 
[V:2] z8 | 
[V:3] D4D4 | 
[V:4] z8 | 
[V:1] A4d4 | 
[V:2] D4D4 | 
[V:3] A6A2 | 
[V:4] z8 | 
[V:1] c4A2c2- | 
[V:2] A2A2A4 | 
[V:3] A2c4BA | 
[V:4] A,,4A,,4 | 
[V:1] c2BAG2A2- | 
[V:2] z2c4A2 | 
[V:3] G6E2 | 
[V:4] E,4E,2C,2 | 
[V:1] A2G4^F2 | 
[V:2] B2c2d4 | 
[V:3] F2G2A4 | 
[V:4] D,2E,2D,4 | 
[V:1] G4z2G2 | 
[V:2] B4z2c2 | 
[V:3] G4z2E2 | 
[V:4] G,,4z2C,2 | 
[V:1] G4G4 | 
[V:2] c4c4 | 
[V:3] E4E4 | 
[V:4] C,4C,4 | 
[V:1] A4G2F2- | 
[V:2] A3Bc2d2 | 
[V:3] D2F2G2A2- | 
[V:4] F,4E,2D,2- | 
[V:1] F2E4D2 | 
[V:2] A2c2A4 | 
[V:3] AGFEF4 | 
[V:4] D,2C,2D,4 | 
[V:1] E8- | 
[V:2] A4z4 | 
[V:3] E8 | 
[V:4] A,,4z4 | 
[V:1] E8 | 
[V:2] z8 | 
[V:3] z4G4- | 
[V:4] C,8 | 
[V:1] z8 | 
[V:2] z8 | 
[V:3] G4F4 | 
[V:4] B,,4A,,4 | 
[V:1] z8 | 
[V:2] z8 | 
[V:3] E4G4 | 
[V:4] C,6C,2 | 
[V:1] z8 | 
[V:2] z8 | 
[V:3] G2A4B2- | 
[V:4] C,4D,4 | 
[V:1] z8 | 
[V:2] z8 | 
[V:3] B2c2A2c2 | 
[V:4] E,4F,2E,2 | 
[V:1] z8 | 
[V:2] z8 | 
[V:3] B2A3Bc2- | 
[V:4] D,2F,4E,D, | 
[V:1] G4G2G2 | 
[V:2] z4c4 | 
[V:3] c2BAG4 | 
[V:4] C,8 | 
[V:1] A2c2B2A2- | 
[V:2] c2c2d2f2- | 
[V:3] z8 | 
[V:4] z8 | 
[V:1] A2GFE2A2 | 
[V:2] f2edc2d2 | 
[V:3] z8 | 
[V:4] z8 | 
[V:1] G2c2B2A2- | 
[V:2] e4d2c2- | 
[V:3] z8 | 
[V:4] z8 | 
[V:1] A2G4^F2 | 
[V:2] cBAGA4 | 
[V:3] z8 | 
[V:4] z8 | 
[V:1] G8 | 
[V:2] G8 | 
[V:3] G4G2G2 | 
[V:4] z4C,4 | 
[V:1] z8 | 
[V:2] z8 | 
[V:3] A4B4 | 
[V:4] C,2C,2D,4 | 
[V:1] z8 | 
[V:2] z8 | 
[V:3] c6B2 | 
[V:4] E,4F,4 | 
[V:1] z8 | 
[V:2] z8 | 
[V:3] A2d4c2 | 
[V:4] F,2F,2E,4 | 
[V:1] z8 | 
[V:2] z8 | 
[V:3] B4A4 | 
[V:4] D,4z2F,2 | 
[V:1] z8 | 
[V:2] z8 | 
[V:3] z2c2c2B2 | 
[V:4] F,2E,2F,2D,2 | 
[V:1] z8 | 
[V:2] z8 | 
[V:3] c2A2GABc | 
[V:4] C,3D,E,F,G,2- | 
[V:1] z8 | 
[V:2] z8 | 
[V:3] d2c4B2 | 
[V:4] G,2F,E,D,4 | 
[V:1] c8 | 
[V:2] e8 | 
[V:3] c4z2G2 | 
[V:4] C,4z2C,2 | 
[V:1] c4c4 | 
[V:2] e4e4 | 
[V:3] A4G4 | 
[V:4] C,4C,4 | 
[V:1] B2d3cBA | 
[V:2] d4d4 | 
[V:3] G4z4 | 
[V:4] G,,4G,4 | 
[V:1] B2c4B2 | 
[V:2] d2d2d2d2 | 
[V:3] z4z2G2- | 
[V:4] G,2G,2G,2G,2 | 
[V:1] c4A4 | 
[V:2] c2e2d4 | 
[V:3] G2FEF2F2 | 
[V:4] C,4D,4 | 
[V:1] G4G2G2 | 
[V:2] B2c4B2 | 
[V:3] G2C2G3F | 
[V:4] E,4E,3D, | 
[V:1] A2B2c4 | 
[V:2] A2G4^F2 | 
[V:3] E2D4C2 | 
[V:4] C,2B,,2A,,4 | 
[V:1] B4z2G2 | 
[V:2] G8 | 
[V:3] D4G4 | 
[V:4] G,,8 | 
[V:1] G4A4 | 
[V:2] z4z2c2 | 
[V:3] E4F4 | 
[V:4] z8 | 
[V:1] G2c4B2 | 
[V:2] c4d4 | 
[V:3] E2C2G4 | 
[V:4] z8 | 
[V:1] c4A2c2 | 
[V:2] c4e4 | 
[V:3] C4z4 | 
[V:4] z2C,4A,,2 | 
[V:1] B2A4GF | 
[V:2] d2c4B2 | 
[V:3] z8 | 
[V:4] B,,2C,2D,4 | 
[V:1] E4z2E2 | 
[V:2] c8 | 
[V:3] G6A2- | 
[V:4] C,8- | 
[V:1] E3FG2C2- | 
[V:2] z2c4BA | 
[V:3] A2GFE4 | 
[V:4] C,8 | 
[V:1] CDEFG2c2 | 
[V:2] G2c3de2 | 
[V:3] E6C2 | 
[V:4] C,6A,,2 | 
[V:1] B2A4^G2 | 
[V:2] d2c2B4 | 
[V:3] D2E2F2G2 | 
[V:4] B,,2C,2D,2E,2 | 
[V:1] A8- | 
[V:2] A4d4 | 
[V:3] E4D4 | 
[V:4] A,,4z4 | 
[V:1] A8 | 
[V:2] d4d4 | 
[V:3] z8 | 
[V:4] z4D,4 | 
[V:1] z4A4 | 
[V:2] f6ed | 
[V:3] z8 | 
[V:4] D,4D,4 | 
[V:1] A4A4 | 
[V:2] c8 | 
[V:3] z4A4 | 
[V:4] F,6E,D, | 
[V:1] c6BA | 
[V:2] z8 | 
[V:3] A4A4 | 
[V:4] C,8 | 
[V:1] G8 | 
[V:2] z4c4 | 
[V:3] c6BA | 
[V:4] z8 | 
[V:1] z8 | 
[V:2] d4e4 | 
[V:3] G8 | 
[V:4] z4C,4 | 
[V:1] z4G4 | 
[V:2] f4e2c2- | 
[V:3] z8 | 
[V:4] D,4E,4 | 
[V:1] A4B4 | 
[V:2] c2BAG4 | 
[V:3] z4G4 | 
[V:4] F,4E,4 | 
[V:1] c4B2G2- | 
[V:2] z4z2G2- | 
[V:3] A4B4 | 
[V:4] C,4D,2E,2- | 
[V:1] G2A2G2F2- | 
[V:2] GFE2D2A2 | 
[V:3] c4B2A2 | 
[V:4] E,2A,,2B,,2D,2- | 
[V:1] F2E4D2 | 
[V:2] B2c2A4- | 
[V:3] D2E2F4 | 
[V:4] D,2C,2D,4 | 
[V:1] E4z2E2 | 
[V:2] A4z2E2 | 
[V:3] E8 | 
[V:4] A,,8 | 
[V:1] E2G4F2- | 
[V:2] G3ABcd2- | 
[V:3] z8 | 
[V:4] z8 | 
[V:1] FEDCD4 | 
[V:2] d2c4B2 | 
[V:3] z8 | 
[V:4] z8 | 
[V:1] C4c4- | 
[V:2] c8 | 
[V:3] E8 | 
[V:4] A,,8 | 
[V:1] c2BAB4 | 
[V:2] z8 | 
[V:3] E4G4 | 
[V:4] A,,4E,4 | 
[V:1] A8 | 
[V:2] c4c2d2 | 
[V:3] A6A2- | 
[V:4] F,6F,2- | 
[V:1] z8 | 
[V:2] c2d4^c2 | 
[V:3] A2GFG4 | 
[V:4] F,2E,D,E,4 | 
[V:1] z8 | 
[V:2] d4z4 | 
[V:3] A8 | 
[V:4] D,8 | 
[V:1] z8 | 
[V:2] e6c2- | 
[V:3] z4A4- | 
[V:4] C,4A,,4 | 
[V:1] z8 | 
[V:2] c2A2A4 | 
[V:3] A2F4D2 | 
[V:4] z4A,4- | 
[V:1] A6F2- | 
[V:2] z4d4- | 
[V:3] D4z4 | 
[V:4] A,2F,4D,2 | 
[V:1] F2D2D4 | 
[V:2] d2d2B4 | 
[V:3] d6d2 | 
[V:4] D,4G,4- | 
[V:1] G6G2 | 
[V:2] G4c4- | 
[V:3] B4G4 | 
[V:4] G,2G,2E,4 | 
[V:1] E4C4 | 
[V:2] c2A2A4 | 
[V:3] c6B2 | 
[V:4] C,4F,4 | 
[V:1] F6G2 | 
[V:2] d6c2- | 
[V:3] A6G2 | 
[V:4] F,2F,3E,E,2 | 
[V:1] A4d4 | 
[V:2] cBA4^G2 | 
[V:3] F2E4D2 | 
[V:4] D,2C,2B,,4 | 
[V:1] c8 ||  
[V:2] A8 ||  
[V:3] E8 ||  
[V:4] A,,8 ||  
[V:1] [M:2/1]c8 | 
[V:2] [M:2/1]A8 | 
[V:3] [M:2/1]E8 | 
[V:4] [M:2/1]A,,8 | 
[V:1] B4B4 | 
[V:2] B4B2e2- | 
[V:3] G4G4 | 
[V:4] E,4E,4 | 
[V:1] A2c4BA | 
[V:2] e2dcd4 | 
[V:3] A8 | 
[V:4] F,8 | 
[V:1] G8 | 
[V:2] e8 | 
[V:3] B8 | 
[V:4] E,8 | 
[V:1] z4G4 | 
[V:2] z4e4 | 
[V:3] z4c4 | 
[V:4] z4C,4 | 
[V:1] A4B4 | 
[V:2] f4d4 | 
[V:3] c4B4 | 
[V:4] F,4G,4 | 
[V:1] c4A2A2- | 
[V:2] c2e2f2d2- | 
[V:3] G2A3GFE | 
[V:4] C,4D,2F,2- | 
[V:1] AGFEF4 | 
[V:2] d2c4B2 | 
[V:3] D2G4F2 | 
[V:4] F,E,C,2D,4 | 
[V:1] E4z2A2 | 
[V:2] c4z2c2 | 
[V:3] G4z2E2 | 
[V:4] C,4z2A,,2 | 
[V:1] B2c4BA | 
[V:2] B2e4d2 | 
[V:3] G4A4 | 
[V:4] E,4F,4 | 
[V:1] G4z2G2 | 
[V:2] e4z2e2 | 
[V:3] B4z2c2 | 
[V:4] E,4z2C,2 | 
[V:1] A4B4 | 
[V:2] f4d4 | 
[V:3] c4B4 | 
[V:4] F,4G,4 | 
[V:1] c4A2A2- | 
[V:2] c2e2f2d2- | 
[V:3] G2A3GFE | 
[V:4] C,4D,2F,2- | 
[V:1] AGFEF4 | 
[V:2] d2c4B2 | 
[V:3] D2G4F2 | 
[V:4] F,E,C,2D,4 | 
[V:1] E4z4 | 
[V:2] c6BA | 
[V:3] G4z4 | 
[V:4] C,6C,2- | 
[V:1] z8 | 
[V:2] G2A2D4 | 
[V:3] E4G4 | 
[V:4] C,2B,,A,,B,,4 | 
[V:1] z8 | 
[V:2] E4F4 | 
[V:3] A6c2- | 
[V:4] A,,8 | 
[V:1] E4G4 | 
[V:2] E8 | 
[V:3] c2BAB4 | 
[V:4] z8 | 
[V:1] A6c2- | 
[V:2] z8 | 
[V:3] A8 | 
[V:4] z4A,,4 | 
[V:1] c2BAB4 | 
[V:2] z8 | 
[V:3] z8 | 
[V:4] C,4D,4- | 
[V:1] A8 | 
[V:2] z4A4 | 
[V:3] A4F4 | 
[V:4] D,2F,4E,D, | 
[V:1] z8 | 
[V:2] c4d4- | 
[V:3] G4A4- | 
[V:4] E,4D,4- | 
[V:1] A3Bc2d2- | 
[V:2] d2f4ed | 
[V:3] A2D2A2B2 | 
[V:4] D,4z4 | 
[V:1] d2^c2d4 | 
[V:2] e4d4 | 
[V:3] A4B4- | 
[V:4] z4G,4- | 
[V:1] D3EF2G2- | 
[V:2] z2d4c2- | 
[V:3] B2A4G2 | 
[V:4] G,2F,4E,2 | 
[V:1] G2F4E2 | 
[V:2] c2B2c4 | 
[V:3] A2F2G4 | 
[V:4] D,4C,4 | 
[V:1] F4z2G2 | 
[V:2] A4B2c2 | 
[V:3] F6E2- | 
[V:4] D,6C,2- | 
[V:1] A2B2c4 | 
[V:2] A2G4^F2 | 
[V:3] E2D4C2 | 
[V:4] C,2B,,2A,,4 | 
[V:1] B4z4 | 
[V:2] G4z4 | 
[V:3] D4z4 | 
[V:4] G,,4z4 | 
[V:1] E6E2 | 
[V:2] A6A2 | 
[V:3] E6E2 | 
[V:4] A,,6A,,2 | 
[V:1] E4D4 | 
[V:2] A4A4 | 
[V:3] E4F4 | 
[V:4] A,,4D,4 | 
[V:1] E8 | 
[V:2] A2E2G3A | 
[V:3] E4z2E2 | 
[V:4] A,,4z4 | 
[V:1] z2E2G2A2 | 
[V:2] B2c2d2e2 | 
[V:3] G2A2B2c2 | 
[V:4] z8 | 
[V:1] B2c4BA | 
[V:2] d2cdefe2- | 
[V:3] d2e4dc | 
[V:4] z2A,,2C,3D, | 
[V:1] G2A4^G2 | 
[V:2] e2d2e4 | 
[V:3] B2A2B4 | 
[V:4] E,2F,2E,4 | 
[V:1] A8- | 
[V:2] c4z4 | 
[V:3] A8 | 
[V:4] A,,4z2D,2 | 
[V:1] A8 | 
[V:2] z4z2A2 | 
[V:3] z2A2A2A2 | 
[V:4] D,2D,2F,3G, | 
[V:1] z8 | 
[V:2] A2A2c3d | 
[V:3] c3de2e2 | 
[V:4] A,2A,2A,2G,F, | 
[V:1] z8 | 
[V:2] e2e2e2dc | 
[V:3] e2dcB2B2 | 
[V:4] E,2E,2E,2E,2 | 
[V:1] z2D2D2D2 | 
[V:2] B2B2B2B2 | 
[V:3] B2B2d4- | 
[V:4] G,6F,E, | 
[V:1] F3GA2A2- | 
[V:2] d6cB | 
[V:3] d2cBA4- | 
[V:4] D,8 | 
[V:1] A2GFE4 | 
[V:2] A8 | 
[V:3] A4z2E2- | 
[V:4] z2A,,4A,,2 | 
[V:1] z2c2B2A2- | 
[V:2] z4z2d2- | 
[V:3] E2E2G2A2 | 
[V:4] C,3D,E,2F,2 | 
[V:1] A2G4^F2 | 
[V:2] d2e2d3c | 
[V:3] B2c2A4 | 
[V:4] G,2C,2D,4 | 
[V:1] G8 | 
[V:2] BAGABcd2- | 
[V:3] G4z4 | 
[V:4] G,,8- | 
[V:1] z8 | 
[V:2] dcBAB4 | 
[V:3] G8 | 
[V:4] G,,8 | 
[V:1] G8 | 
[V:2] c8 | 
[V:3] G4E4 | 
[V:4] C,4z4 | 
[V:1] G4E4 | 
[V:2] z8 | 
[V:3] E6F2 | 
[V:4] C,8 | 
[V:1] E8 | 
[V:2] c8 | 
[V:3] G4A4 | 
[V:4] C,4A,,4 | 
[V:1] c8 | 
[V:2] c4A4 | 
[V:3] E8 | 
[V:4] A,,8 | 
[V:1] c4A4 | 
[V:2] A8 | 
[V:3] z8 | 
[V:4] z4z2A,2- | 
[V:1] A4z4 | 
[V:2] z8 | 
[V:3] z2A2B2c2 | 
[V:4] A,2F,2G,2A,2- | 
[V:1] z8 | 
[V:2] z8 | 
[V:3] A2d4^c2 | 
[V:4] A,2G,F,E,4 | 
[V:1] A4A2F2 | 
[V:2] z4z2A2 | 
[V:3] d8 | 
[V:4] D,8 | 
[V:1] G2A4GF | 
[V:2] B2c2A2d2 | 
[V:3] z4z2D2 | 
[V:4] z8 | 
[V:1] E2D2E4 | 
[V:2] c2d4^c2 | 
[V:3] E2F2G2A2- | 
[V:4] z8 | 
[V:1] D2A2G2F2- | 
[V:2] d4z2A2 | 
[V:3] A2F2G2A2 | 
[V:4] D,4E,2D,2- | 
[V:1] F2E4D2 | 
[V:2] B2c2A4 | 
[V:3] D2E2F4 | 
[V:4] D,2C,2D,4 | 
[V:1] E4z4 | 
[V:2] B8 | 
[V:3] E4G4- | 
[V:4] G,6E,2 | 
[V:1] G4G3A | 
[V:2] z2B2B2B2 | 
[V:3] G2E2E4 | 
[V:4] E,4z2E,2 | 
[V:1] B2c4BA | 
[V:2] G2G2A3B | 
[V:3] z8 | 
[V:4] E,2C,2D,2E,2- | 
[V:1] G4z2G2- | 
[V:2] c2B2A2c2- | 
[V:3] z8 | 
[V:4] E,4F,2E,2- | 
[V:1] G2A2B4 | 
[V:2] c2BAG4 | 
[V:3] z8 | 
[V:4] E,2D,C,B,,4 | 
[V:1] E4A4- | 
[V:2] A4z2c2- | 
[V:3] C4F4- | 
[V:4] A,,4z4 | 
[V:1] A4A4 | 
[V:2] c2c2c2c2- | 
[V:3] F2F2E2E2 | 
[V:4] A,,4A,,2A,,2 | 
[V:1] A2c2B2A2- | 
[V:2] c2A2B2e2- | 
[V:3] F4G2C2- | 
[V:4] A,,4G,,2A,,2- | 
[V:1] A2GFE2D2 | 
[V:2] edc4B2 | 
[V:3] CDEFG4 | 
[V:4] A,,B,,C,D,E,2G,2 | 
[V:1] A2G2F4 | 
[V:2] c4d4 | 
[V:3] A2c4B2 | 
[V:4] F,2E,2D,4 | 
[V:1] E8 | 
[V:2] G4z4 | 
[V:3] c8 | 
[V:4] C,4z4 | 
[V:1] z2E4E2 | 
[V:2] c6c2 | 
[V:3] z2G4G2 | 
[V:4] C,6C,2 | 
[V:1] E4E4 | 
[V:2] c4c4 | 
[V:3] G4G4 | 
[V:4] C,4C,4 | 
[V:1] F6E2 | 
[V:2] d6c2 | 
[V:3] A6G2 | 
[V:4] F,6C,2 | 
[V:1] E4z2E2 | 
[V:2] c4z2c2 | 
[V:3] G4z2G2 | 
[V:4] C,4z2C,2 | 
[V:1] E2E2F4 | 
[V:2] c2c2A2B2 | 
[V:3] G2G2F4 | 
[V:4] C,2C,2D,4 | 
[V:1] E2G3FED | 
[V:2] c4B2e2- | 
[V:3] G8- | 
[V:4] C,3D,E,2C,2- | 
[V:1] C2c4B2 | 
[V:2] e2dcd4 | 
[V:3] G8 | 
[V:4] C,2B,,A,,G,,4 | 
[V:1] c4z2c2- | 
[V:2] c8 | 
[V:3] z2F4E2 | 
[V:4] z8 | 
[V:1] c2B2A4 | 
[V:2] z4z2c2- | 
[V:3] D4C4 | 
[V:4] z8 | 
[V:1] G4z4 | 
[V:2] c2B2A4 | 
[V:3] z8 | 
[V:4] z2G,4F,2 | 
[V:1] z8 | 
[V:2] G4z4 | 
[V:3] G4A4 | 
[V:4] E,4D,4 | 
[V:1] G4A4 | 
[V:2] z8 | 
[V:3] G4c4- | 
[V:4] z8 | 
[V:1] G4c4- | 
[V:2] z4z2G2 | 
[V:3] c2c2c4 | 
[V:4] z4C,4 | 
[V:1] c2c2c4 | 
[V:2] G2G2c4- | 
[V:3] z4G4 | 
[V:4] C,4C,4 | 
[V:1] c3BAGA2- | 
[V:2] c2c2c3B | 
[V:3] A2c3BAG | 
[V:4] F,6F,2 | 
[V:1] A2GFG4 | 
[V:2] A2d4^c2 | 
[V:3] F2A4G2 | 
[V:4] F,4E,4 | 
[V:1] F4E2F2- | 
[V:2] d4z4 | 
[V:3] A8- | 
[V:4] D,4C,2D,2- | 
[V:1] F2EDE2F2 | 
[V:2] z8 | 
[V:3] A8 | 
[V:4] D,2C,B,,C,2D,2 | 
[V:1] G3AB2A2- | 
[V:2] D6F2- | 
[V:3] B3cd2c2- | 
[V:4] G,,4z4 | 
[V:1] A2G4^F2 | 
[V:2] F2G2D4 | 
[V:3] c2B2A4 | 
[V:4] z8 | 
[V:1] G8- | 
[V:2] G8 | 
[V:3] G8- | 
[V:4] C,8 | 
[V:1] G8 | 
[V:2] z8 | 
[V:3] G8 | 
[V:4] C,4B,,4 | 
[V:1] z8 | 
[V:2] c8 | 
[V:3] z8 | 
[V:4] A,,B,,C,D,E,2F,2 | 
[V:1] z8 | 
[V:2] c4B4 | 
[V:3] z8 | 
[V:4] E,2A,4^G,2 | 
[V:1] z8 | 
[V:2] AGABc2d2 | 
[V:3] F8 | 
[V:4] A,8 | 
[V:1] z8 | 
[V:2] A2d4^c2 | 
[V:3] F4E4 | 
[V:4] z8 | 
[V:1] F8 | 
[V:2] d8 | 
[V:3] DEFGA2B2 | 
[V:4] D,8 | 
[V:1] F4E4 | 
[V:2] z8 | 
[V:3] A2d4^c2 | 
[V:4] D,4A,4 | 
[V:1] DEFGA2B2 | 
[V:2] z8 | 
[V:3] d8 | 
[V:4] D,3E,F,2G,2 | 
[V:1] A2d4c2 | 
[V:2] d3cB2A2 | 
[V:3] z2D3EF2 | 
[V:4] D,4z4 | 
[V:1] B2A4^G2 | 
[V:2] d2c2B4 | 
[V:3] G2A2E4 | 
[V:4] z8 | 
[V:1] A8 | 
[V:2] A4z4 | 
[V:3] A8 | 
[V:4] D,6D,2 | 
[V:1] z8 | 
[V:2] A6A2 | 
[V:3] z8 | 
[V:4] D,4C,4 | 
[V:1] z8 | 
[V:2] A4G4 | 
[V:3] z8 | 
[V:4] F,4E,4 | 
[V:1] z8 | 
[V:2] c4B4 | 
[V:3] z8 | 
[V:4] z2A,,4G,,2 | 
[V:1] z8 | 
[V:2] z2E4D2 | 
[V:3] z8 | 
[V:4] C,3D,E,2F,2 | 
[V:1] z8 | 
[V:2] G3AB2c2 | 
[V:3] z8 | 
[V:4] E,2C,2D,2E,2- | 
[V:1] z8 | 
[V:2] B2A4^G2 | 
[V:3] z8 | 
[V:4] E,D,C,2B,,4 | 
[V:1] c6c2 | 
[V:2] A4z2A2- | 
[V:3] E6E2 | 
[V:4] A,,4z2A,,2- | 
[V:1] c4c4 | 
[V:2] A2A2A2A2 | 
[V:3] E4E4 | 
[V:4] A,,2A,,2A,,2A,,2 | 
[V:1] B4G4 | 
[V:2] d4d4 | 
[V:3] G4G4 | 
[V:4] G,,4G,,4 | 
[V:1] A4B4 | 
[V:2] d8 | 
[V:3] F8 | 
[V:4] D,8 | 
[V:1] c4z2G2 | 
[V:2] G8 | 
[V:3] E4C4 | 
[V:4] C,4E,4 | 
[V:1] A4A4- | 
[V:2] z2DEFGA2- | 
[V:3] F6E2- | 
[V:4] D,6C,2- | 
[V:1] A2B2c4 | 
[V:2] A2G4^F2 | 
[V:3] E2D4C2 | 
[V:4] C,2B,,2A,,4 | 
[V:1] B4z4 | 
[V:2] G4E4 | 
[V:3] D4G4- | 
[V:4] G,,4z4 | 
[V:1] E6F2 | 
[V:2] z2E2A4 | 
[V:3] G4c4 | 
[V:4] C,6D,2 | 
[V:1] G4A4- | 
[V:2] G4c2d2 | 
[V:3] B4A4 | 
[V:4] E,4F,4 | 
[V:1] A4^G4 | 
[V:2] e8 | 
[V:3] B8 | 
[V:4] E,8 | 
[V:1] A4c4- | 
[V:2] c8 | 
[V:3] A8 | 
[V:4] A,,4A,4- | 
[V:1] c2B2A4 | 
[V:2] z4A4 | 
[V:3] z4D4 | 
[V:4] A,4F,4 | 
[V:1] G4F4 | 
[V:2] c4d4 | 
[V:3] E4F4 | 
[V:4] G,4A,4 | 
[V:1] G6F2 | 
[V:2] e6d2 | 
[V:3] C6D2 | 
[V:4] E,4G,4- | 
[V:1] E2D2E4 | 
[V:2] c3B/A/B4 | 
[V:3] E2F2G4 | 
[V:4] G,2F,2E,2D,2 | 
[V:1] E8- | 
[V:2] A2G2c4- | 
[V:3] E4A4- | 
[V:4] C,2B,,2A,,4 | 
[V:1] E8- | 
[V:2] c2BAG2A2 | 
[V:3] A2GFE2F2 | 
[V:4] C,6B,,A,, | 
[V:1] E8- | 
[V:2] B4c4 | 
[V:3] G4C4 | 
[V:4] G,,4A,,4 | 
[V:1] E8- | 
[V:2] B8- | 
[V:3] G6E2 | 
[V:4] E,,8- | 
[V:1] E8 |]  
[V:2] B8 |]  
[V:3] E8 |]  
[V:4] E,,8 |]  



